assets/home-tab/Asset/Thunder.svg

<svg width="12" height="12" viewBox="0 0 12 12" fill="none" xmlns="http://www.w3.org/2000/svg">
<path d="M2.65203 6.26747C3.7062 4.41287 4.51149 3.13045 5.63338 1.49558C5.89155 1.11936 6.02064 0.931248 6.13825 0.90651C6.23939 0.885235 6.34567 0.918193 6.41703 0.992963C6.5 1.0799 6.5 1.30887 6.5 1.7668V3.15C6.5 3.71005 6.5 3.99008 6.60899 4.20399C6.70487 4.39215 6.85785 4.54513 7.04601 4.64101C7.25992 4.75 7.53995 4.75 8.1 4.75H8.73168C8.98614 4.75 9.11337 4.75 9.19085 4.80424C9.25812 4.85133 9.3037 4.92521 9.31562 5.00646C9.32935 5.10003 9.27258 5.21316 9.15903 5.43942C8.14753 7.45496 7.32744 8.8085 6.11001 10.5464C5.8547 10.9108 5.72704 11.093 5.60976 11.1169C5.5091 11.1373 5.40308 11.1039 5.33237 11.0294C5.25 10.9426 5.25 10.7188 5.25 10.2712V8.58077C5.25 8.02072 5.25 7.74069 5.14101 7.52678C5.04513 7.33862 4.89215 7.18564 4.70399 7.08976C4.49008 6.98077 4.21005 6.98077 3.65 6.98077H3.06847C2.79952 6.98077 2.66505 6.98077 2.58635 6.92383C2.51792 6.87433 2.47321 6.79748 2.46399 6.71353C2.45338 6.61697 2.5196 6.50047 2.65203 6.26747Z" fill="#2E888A"/>
</svg>

<svg xmlns="http://www.w3.org/2000/svg" width="12" height="12" fill="none" viewBox="0 0 12 12"><path fill="#2e888a" d="M2.652 6.267a61 61 0 0 1 2.981-4.771c.259-.377.388-.565.505-.59a.3.3 0 0 1 .279.087c.083.087.083.316.083.774V3.15c0 .56 0 .84.109 1.054a1 1 0 0 0 .437.437c.214.109.494.109 1.054.109h.632c.254 0 .381 0 .459.054a.3.3 0 0 1 .125.202c.013.094-.043.207-.157.433a37 37 0 0 1-3.049 5.107c-.255.365-.383.547-.5.57a.3.3 0 0 1-.278-.087c-.082-.086-.082-.31-.082-.758v-1.69c0-.56 0-.84-.109-1.054a1 1 0 0 0-.437-.437c-.214-.11-.494-.11-1.054-.11h-.582c-.268 0-.403 0-.482-.056a.3.3 0 0 1-.122-.21c-.01-.097.056-.214.188-.447"/></svg>
